X:1
T:Title
%%score [ ( 1 2 ) ( 3 4 ) ]
L:1/8
Q:1/4=240
M:4/4
K:D
V:1 treble nm="Midi_74"
V:2 treble 
V:3 bass nm="Midi_74"
V:4 bass 
V:1
"^Psalm 36" A8 | A4 ^A4 | B8 | B6 c2 | d4 c4 | B4 B4 |"^Thomas Tallis" ^A8 |] %7
V:2
 D8 | D4 E4 | ^D8 | E8 | F4 E4 | D4 D4 | C8 |] %7
V:3
 F,8 | F,4 E,4 | F,8 | G,8 | A,4 A,4 | F,4 F,4 | F,8 |] %7
V:4
 D,8 | D,4 C,4 | B,,8 | E,8 | D,4 A,,4 | B,,4 B,,4 | F,8 |] %7

